www/assets/images/src/icon_code_rec.svg

<svg fill="none" height="752" viewBox="0 0 752 752" width="752" xmlns="http://www.w3.org/2000/svg"><path d="m324.319 330.194-67.476 59.066c-9.449 8.272-9.449 21.838 0 30.109l67.476 59.067c4.849 4.245 12.44.801 12.44-5.643v-18.326c0-2.162-.934-4.219-2.56-5.643l-48.697-42.628c-1.137-.996-1.137-2.766 0-3.762l48.697-42.628c1.626-1.424 2.56-3.481 2.56-5.643v-18.326c0-6.445-7.591-9.888-12.44-5.643zm105.976 76.002-48.696 42.628c-1.627 1.424-2.56 3.481-2.56 5.643v18.326c0 6.444 7.591 9.888 12.44 5.643l29.591-25.904 37.884-33.163c9.449-8.271 9.449-21.837 0-30.109l-67.475-59.066c-4.849-4.245-12.44-.802-12.44 5.643v18.326c0 2.162.933 4.219 2.56 5.643l48.696 42.628c1.138.996 1.138 2.766 0 3.762z" fill="#4e8f37" stroke="#4e8f37" stroke-width="5"/><path clip-rule="evenodd" d="m163.426 175.847c-13.807 0-25 11.193-25 25v341.539c0 13.807 11.193 25 25 25h392.61c13.807 0 25-11.193 25-25v-200.627c0-6.504-2.535-12.753-7.068-17.419l-136.873-140.912c-4.708-4.847-11.176-7.581-17.933-7.581zm286.305 86.664h-267.972v266.185h355.944v-173.092z" fill="#4e8f37" fill-rule="evenodd"/><path d="m223.804 219.742c0 11.598-9.402 21-21 21s-21-9.402-21-21 9.402-21 21-21 21 9.402 21 21z" fill="#fff"/><path d="m277.97 219.742c0 11.598-9.402 21-21 21s-21-9.402-21-21 9.402-21 21-21 21 9.402 21 21z" fill="#fff"/><path d="m499.155 192.83c-6.19-6.332-1.704-16.991 7.151-16.991h65.637c5.523 0 10 4.477 10 10v67.134c0 8.963-10.884 13.4-17.15 6.991z" fill="#4e8f37"/></svg>

<svg width="752" height="752" viewBox="0 0 752 752" fill="none" xmlns="http://www.w3.org/2000/svg">
<path d="M324.319 330.194L256.843 389.26C247.394 397.532 247.394 411.098 256.843 419.369L324.319 478.436C329.168 482.681 336.759 479.237 336.759 472.793V454.467C336.759 452.305 335.825 450.248 334.199 448.824L285.502 406.196C284.365 405.2 284.365 403.43 285.502 402.434L334.199 359.806C335.825 358.382 336.759 356.325 336.759 354.163V335.837C336.759 329.392 329.168 325.949 324.319 330.194ZM430.295 406.196L381.599 448.824C379.972 450.248 379.039 452.305 379.039 454.467V472.793C379.039 479.237 386.63 482.681 391.479 478.436L421.07 452.532L458.954 419.369C468.403 411.098 468.403 397.532 458.954 389.26L391.479 330.194C386.63 325.949 379.039 329.392 379.039 335.837V354.163C379.039 356.325 379.972 358.382 381.599 359.806L430.295 402.434C431.433 403.43 431.433 405.2 430.295 406.196Z" fill="#4E8F37" stroke="#4E8F37" stroke-width="5"/>
<path fill-rule="evenodd" clip-rule="evenodd" d="M163.426 175.847C149.619 175.847 138.426 187.04 138.426 200.847V542.386C138.426 556.193 149.619 567.386 163.426 567.386H556.036C569.843 567.386 581.036 556.193 581.036 542.386V341.759C581.036 335.255 578.501 329.006 573.968 324.34L437.095 183.428C432.387 178.581 425.919 175.847 419.162 175.847H163.426ZM449.731 262.511H181.759V528.696H537.703V355.604L449.731 262.511Z" fill="#4E8F37"/>
<path d="M223.804 219.742C223.804 231.34 214.402 240.742 202.804 240.742C191.206 240.742 181.804 231.34 181.804 219.742C181.804 208.144 191.206 198.742 202.804 198.742C214.402 198.742 223.804 208.144 223.804 219.742Z" fill="white"/>
<path d="M277.97 219.742C277.97 231.34 268.568 240.742 256.97 240.742C245.372 240.742 235.97 231.34 235.97 219.742C235.97 208.144 245.372 198.742 256.97 198.742C268.568 198.742 277.97 208.144 277.97 219.742Z" fill="white"/>
<path d="M499.155 192.83C492.965 186.498 497.451 175.839 506.306 175.839H571.943C577.466 175.839 581.943 180.316 581.943 185.839V252.973C581.943 261.936 571.059 266.373 564.793 259.964L499.155 192.83Z" fill="#4E8F37"/>
</svg>
